X:1
T:Resting Place, CMD
T:Resting Place, CMD
T:Henry Vander Werp, 1911
T:Public Domain Courtesy of the Cyber Hymnal™
C:Henry Vander Werp, 1911
Z:Public Domain
Z:Courtesy of the Cyber Hymnal™
%%score ( 1 2 ) ( 3 4 )
L:1/8
Q:1/4=112
M:4/4
K:Eb
V:1 treble 
V:2 treble 
V:3 bass 
V:4 bass 
V:1
 E2 [DF]2 [EG]2 [CA]2 | [DA]2 [EG]2 F2 [B,E]2 | [EG]2 [CF]2 [CE]2 [CE]2 | [B,D]2 [B,E]6 | %4
 [EB]2 [DB]2 [EB]2 [Fe]2 | [Fd]2 [Gc]2 c2 [DB]2 | [EG]2 [EB]2 [EA]2 [EG]2 | [DF]2 [B,E]6 | %8
 [EB]2 [DB]2 [Ee]2 [Fd]2 | [Ec]2 [EB]2 A2 [EG]2 | [EG]2 [Ec]2 [FB]2 [EB]2 | [E=A]2 [DB]6 | %12
 E2 [EF]2 [EG]2 [FB]2 | [DA]2 [EG]2 [DF]2 [EG]2 | E2 [EA]2 [DA]2 [CA]2 [B,D]2 | [B,E]8 |] %16
V:2
 E2 x6 | x4 (ED) x2 | x8 | x8 | x8 | x4 (FE) x2 | x8 | x8 | x8 | x4 (ED) x2 | x8 | x8 | x8 | x8 | %14
 x10 | x8 |] %16
V:3
 [E,G,]2 [B,,B,]2 [E,B,]2 [A,,A,]2 | [B,,F,]2 [B,,G,]2 (B,A,) [E,G,]2 | %2
 [E,B,]2 [A,,A,]2 [A,,A,]2 [F,=A,]2 | (F,A,) [E,G,]6 | [E,G,]2 [F,A,]2 [G,B,]2 [=A,C]2 | %5
 B,2 [E,B,]2 [F,=A,]2 [B,,B,]2 | [E,B,]2 [G,,_D]2 [A,,C]2 [B,,B,]2 | [B,,A,]2 [E,G,]6 | %8
 [E,G,]2 [F,A,]2 [G,B,]2 [G,=B,]2 | [A,C]2 [G,B,]2 [F,B,]2 [E,B,]2 | %10
 [C,C]2 [E,G,]2 [D,F,]2 [C,F,]2 | [F,,F,]2 [B,,F,]6 | [E,G,]2 [E,A,]2 [E,B,]2 [F,A,]2 | %13
 [F,B,]2 B,2 B,2 [E,B,]2 | [E,G,]2 [A,,C]2 [B,,F,]2 E,2 (F,A,) | [E,G,]8 |] %16
V:4
 x8 | x4 B,,2 x2 | x8 | B,,2 x6 | x8 | x8 | x8 | x8 | x8 | x8 | x8 | x8 | x8 | x2 G,A, x4 | %14
 x8 B,,2 | x8 |] %16

